X:187
T:Sexengelska efter Pelle Ror
T:(SvL Småland 187)
R:Engelska
S:Pelle Ror
S:Vilhelm Andersson
O:Torsås, Småland
B:Svenska Låtar Småland
M:2/4
L:1/8
K:A
A,2|:A,/C/E/C/ A,/C/E/C/|EA/A/ AA|A,/C/E/C/ A,/C/E/C/|CB,/B,/ B,B,|
A,/C/E/C/ A,/C/E/C/|EA/A/ AA|c/e/c/A/ B/d/B/G/|G[AA] [AA]2:|
|:cA c/e/d/c/|B/A/G/A/ Bd|cA c/e/d/c/|B/A/G/F/ EE|
cA c/e/d/c/|B/A/G/A/ Bd|c/e/c/A/ B/d/B/G/|G[AA] [AA]2:|

